X:27
T:score120
L:1/8
Q:1/4=102
M:4/4
I:linebreak $
K:F
 (c3 c dcAF | F4 D4) | (C3 F AFcA |$ G6) z2 | (c3 c dcAF | F4 D4) | (C3 F AGFE | F6) z2 |] %8
